X:25
T:Road to Lisdoonvarna
M:6/8
R:Slide
C:Traditional
K:Edor
D | E2B B2A | B2c d3 | F2A ABA | D2E FED |
E2B B2A | B2c d3 | cdc B2A |[1 B2E E2 :|[2 B2E E3 |]
|: e2f gfe | d2B Bcd | c2A ABc | dcd Bcd |
e2f gfe | d2B Bcd | cdc B2A |[1 B2E E3 :|[2 B2E E2 |]

